images/wikipedia-wordmark-fa.svg

<?xml version="1.0" encoding="UTF-8"?>
<svg xmlns="http://www.w3.org/2000/svg" width="138" height="21" viewBox="0 0 103 35">
	<title>
		fa-wordmark-103-35-1
	</title>
	<g id="Page-1" fill="none" fill-rule="evenodd" stroke="none" stroke-width="1">
		<g id="fa-wordmark-103-35-1" fill="#72777D" fill-rule="nonzero">
			<path id="Combined-Shape" d="M83.5742,0.25391 C83.57418,0.61852 83.35934,1.54301 82.92966,3.02731 C79.76557,4.06901 75.69007,5.53381 70.70267,7.42181 C73.02037,9.46611 75.85887,12.66921 79.21827,17.03121 C80.40317,18.56771 81.36667,19.55721 82.10887,20.00001 C82.68178,20.33856 83.50857,20.50783 84.58937,20.50783 L85.09718,20.50783 L85.097,20.508 L86.28576,20.50871 C88.77276,20.50871 90.01626,20.05949 90.01626,19.16101 C90.01625,18.53601 89.44985,17.50081 88.31706,16.05551 L89.33266,13.59461 C89.43682,13.34723 89.52145,13.22352 89.58656,13.22352 C89.65166,13.22352 89.78838,13.37327 89.99672,13.67274 C91.05142,15.22224 91.57872,16.81074 91.57872,18.43834 C91.57872,21.74571 89.93156,23.39931 86.63726,23.39931 L83.72716,23.39931 L83.727,23.396 L83.5807344,23.3911112 C82.3638652,23.3132569 81.1182071,22.6125676 79.84376,21.28901 C79.17968,20.5989 78.20966,19.32281 76.93356,17.46091 C77.06376,21.41921 74.83066,23.39841 70.23436,23.39841 L60.75386,23.39841 C60.07676,23.39841 59.39966,23.50909 58.72266,23.73044 C57.82421,24.04294 57.37496,24.46612 57.37496,24.99994 C57.374943,25.19525 58.57616,25.53054 60.97846,26.00584 C63.38076,26.4811 64.58196,27.00519 64.58196,27.57814 C64.581936,29.54424 64.01553,31.00914 62.88276,31.97264 C60.96866,33.61324 57.59626,34.43354 52.76576,34.43354 C46.93246,34.43354 44.01576,32.27854 44.01576,27.96874 C44.01576,27.0052 44.22409,25.92444 44.64076,24.72654 C45.05742,23.52864 45.56523,22.53904 46.16416,21.75774 C46.39853,21.45826 46.61337,21.2955 46.80869,21.26945 C47.004,21.25645 47.10165,21.36065 47.10166,21.58195 C47.101654,21.77727 47.02353,22.02466 46.86728,22.32414 C46.11207,23.75644 45.73448,25.24084 45.73448,26.77724 C45.734475,28.04024 46.20974,29.08194 47.16028,29.90224 C48.38428,30.96994 50.28528,31.50384 52.86338,31.50384 C54.85558,31.50383 56.70448,31.39966 58.41028,31.19134 C61.43108,30.81373 62.94148,30.16924 62.94148,29.25774 C62.941458,28.88013 62.28391,28.58065 60.96878,28.3593 C58.88538,28.00773 57.67448,27.78638 57.33598,27.69524 C56.02088,27.33065 55.36328,26.77075 55.36328,26.01554 C55.363265,25.41658 55.68228,24.66784 56.32031,23.76944 C56.85415,23.01424 57.41401,22.40224 58.00001,21.93354 C59.17191,20.98302 60.83851,20.50774 63.00001,20.50774 L70.58596,20.50781 C73.94536,20.50781 75.62496,19.57682 75.62506,17.71481 C75.62505,16.72523 75.03911,15.51431 73.86726,14.08201 C73.12506,13.17057 72.04436,12.05731 70.62506,10.74221 C69.45316,9.64851 68.86726,9.04301 68.86726,8.92581 C68.86725,7.27221 69.1472,6.06121 69.7071,5.29301 C69.83731,5.12376 71.4714,4.4597 74.6094,3.30081 C77.9297,2.07691 80.918,1.06121 83.5742,0.25391 Z M38.011409,30.42661 L39.847309,32.26251 L38.030909,34.07891 L36.195009,32.24301 L38.011409,30.42661 Z M98.60073,14.07811 C100.16323,14.07811 101.32213,15.15231 102.07733,17.30081 C102.59815,18.79821 102.85866,20.49741 102.85866,22.39851 C102.85866,26.12241 101.57606,29.31241 99.01096,31.96871 C98.20366,32.80203 97.68936,33.21871 97.46796,33.21871 C96.07476,33.21871 94.45366,33.07547 92.60466,32.78902 C91.96664,32.68485 91.64763,32.58719 91.64763,32.49605 C91.64763,32.39188 91.98617,32.24214 92.66323,32.04683 C94.69443,31.46089 96.57603,30.41923 98.30773,28.92183 C99.03688,28.29683 99.70093,27.56113 100.29993,26.71483 C101.05513,25.66013 101.43273,24.77473 101.43273,24.05863 L101.43273,23.23832 L98.17103,23.35551 C95.86633,23.43361 94.71403,22.4766 94.71403,20.48441 C94.71402,19.24741 95.07209,17.91931 95.78823,16.50001 C96.60854,14.88541 97.54603,14.07811 98.60073,14.07811 Z M89.16454,26.40321 L91.09814,28.35631 L89.16454,30.28991 L87.23094,28.33681 L89.16454,26.40321 Z M84.86764,26.40321 L86.82074,28.35631 L84.88714,30.28991 L82.95354,28.33681 L84.86764,26.40321 Z M13.142294,26.40321 L15.075894,28.35631 L13.142294,30.28991 L11.208694,28.33681 L13.142294,26.40321 Z M8.845394,26.40321 L10.798494,28.35631 L8.864894,30.28991 L6.931294,28.33681 L8.845394,26.40321 Z M35.784909,26.52041 L37.620809,28.35631 L35.784909,30.17271 L33.929409,28.33681 L35.784909,26.52041 Z M40.218409,26.52041 L42.073909,28.35631 L40.238009,30.17271 L38.382509,28.33681 L40.218409,26.52041 Z M27.16802,8.06647 C27.24613,8.11857 27.34379,8.28133 27.46099,8.55475 C28.32035,10.58605 29.45969,13.55475 30.87899,17.46095 C31.62116,19.49215 32.66929,20.50785 34.02349,20.50785 L34.2188,20.50785 L34.87106,20.50871 L37.42966,20.50871 C39.91666,20.50871 41.16016,20.05949 41.16016,19.16101 C41.160155,18.53601 40.59375,17.50081 39.46096,16.05551 L40.47656,13.59461 C40.58072,13.34723 40.66536,13.22352 40.73047,13.22352 C40.79557,13.22352 40.93229,13.37327 41.14063,13.67274 C42.19533,15.22224 42.72266,16.81074 42.72266,18.43834 C42.72266,21.74571 41.07556,23.39931 37.78126,23.39931 L34.87106,23.39931 L34.21866,23.39841 L33.61319,23.39841 C32.67567,23.39841 31.88139,23.09893 31.23039,22.49997 C30.82673,22.13539 30.33845,21.47137 29.76559,20.50777 C29.16662,21.56247 28.46999,22.31117 27.67579,22.75387 C26.69922,23.28772 25.31899,23.55465 23.53519,23.55465 C20.03259,23.55465 18.28129,22.29815 18.28129,19.78515 C18.28129,18.9388 18.5417,18.06635 19.06254,17.16795 C19.23181,16.86848 19.40108,16.71874 19.57035,16.71873 C19.7266,16.71874 19.80472,16.84895 19.80473,17.10936 C19.804726,17.25259 19.78519,17.46418 19.74614,17.74412 C19.70707,18.02408 19.68754,18.23567 19.68755,18.37889 C19.687545,19.87629 20.95705,20.62499 23.49615,20.62499 C27.07685,20.625 28.86725,19.92838 28.86725,18.53519 C28.867237,17.77999 27.83205,15.06519 25.76175,10.39069 L26.87505,8.45709 C27.01827,8.20971 27.11592,8.07951 27.16802,8.06647 Z M1.87503,-5.32907052e-15 C1.95315,-5.32907052e-15 2.02477,0.15628 2.08987,0.46875 C2.15497,0.78128 2.21356,1.2012 2.26565,1.72855 C2.31773,2.25591 2.3633,2.86465 2.40237,3.55475 C2.44143,4.24487 2.47398,4.96425 2.50003,5.71295 C2.52607,6.46167 2.5456,7.21685 2.55862,7.97855 C2.57163,8.74028 2.57815,9.45315 2.57815,10.11725 L2.57815,17.40245 C2.578145,19.47275 3.57424,20.50795 5.56645,20.50795 L6.34766,20.50795 L6.98106,20.50871 L9.53966,20.50871 C12.02666,20.50871 13.27016,20.05949 13.27016,19.16101 C13.270155,18.53601 12.70375,17.50081 11.57096,16.05551 L12.58656,13.59461 C12.69072,13.34723 12.77536,13.22352 12.84047,13.22352 C12.90557,13.22352 13.04229,13.37327 13.25063,13.67274 C14.30533,15.22224 14.83266,16.81074 14.83266,18.43834 C14.83266,21.74571 13.18556,23.39931 9.89126,23.39931 L6.98106,23.39931 L6.34766,23.39841 L5.17576,23.39841 C4.36846,23.39841 3.67506,23.26495 3.09566,22.99802 C2.51623,22.73109 2.03776,22.31443 1.66016,21.74802 C1.28255,21.18162 1.00586,20.45242 0.83008,19.56052 C0.6543,18.6686 0.5664,17.59112 0.56641,16.32812 L0.58594,11.56252 C0.585936,9.29692 0.39062,6.05472 -1.59872116e-13,1.83592 L1.543,0.19532 C1.6732,0.06513 1.78388,-5.32907052e-15 1.87503,-5.32907052e-15 Z M98.19065,16.87101 C97.66981,16.87101 97.21733,17.06633 96.83325,17.45695 C96.44912,17.84758 96.25707,18.30331 96.25707,18.82415 C96.25707,19.96995 97.07738,20.54295 98.71797,20.54295 C99.32994,20.54295 100.11117,20.47135 101.06177,20.3281 C101.06177,19.53385 100.78831,18.77211 100.24145,18.04291 C99.64248,17.26166 98.95885,16.87101 98.19065,16.87101 Z"/>
		</g>
	</g>
</svg>

<svg xmlns="http://www.w3.org/2000/svg" width="138" height="21" viewBox="0 0 103 35"><path d="M83.574.254c0 .365-.215 1.289-.644 2.773-3.164 1.042-7.24 2.507-12.227 4.395 2.317 2.044 5.156 5.247 8.515 9.61 1.185 1.536 2.149 2.525 2.89 2.968.574.339 1.4.508 2.481.508h1.697c2.487 0 3.73-.449 3.73-1.347 0-.625-.566-1.66-1.699-3.105l1.016-2.461c.104-.248.188-.371.254-.371.065 0 .201.15.41.449 1.054 1.55 1.582 3.138 1.582 4.765 0 3.308-1.647 4.961-4.942 4.961h-2.91v-.003l-.146-.005c-1.217-.078-2.463-.778-3.737-2.102-.664-.69-1.634-1.966-2.91-3.828.13 3.958-2.103 5.937-6.7 5.937h-9.48c-.677 0-1.354.111-2.031.332-.899.313-1.348.736-1.348 1.27 0 .195 1.201.53 3.603 1.006 2.403.475 3.604 1 3.604 1.572 0 1.966-.566 3.431-1.7 4.395-1.913 1.64-5.286 2.46-10.116 2.46-5.834 0-8.75-2.154-8.75-6.464 0-.964.208-2.045.625-3.242.416-1.198.924-2.188 1.523-2.97.235-.299.45-.462.645-.488.195-.013.293.092.293.313 0 .195-.078.443-.235.742-.755 1.432-1.133 2.917-1.133 4.453 0 1.263.476 2.305 1.426 3.125 1.224 1.068 3.125 1.602 5.703 1.602 1.993 0 3.841-.104 5.547-.313 3.021-.377 4.531-1.022 4.531-1.933 0-.378-.657-.677-1.972-.899-2.084-.351-3.295-.573-3.633-.664-1.315-.364-1.973-.924-1.973-1.68 0-.598.32-1.347.957-2.246.534-.755 1.094-1.367 1.68-1.835 1.172-.951 2.839-1.426 5-1.426h7.586c3.36 0 5.039-.931 5.04-2.793-.001-.99-.587-2.2-1.759-3.633-.742-.911-1.823-2.025-3.242-3.34-1.172-1.093-1.758-1.699-1.758-1.816 0-1.654.28-2.865.84-3.633.13-.17 1.764-.833 4.902-1.992 3.32-1.224 6.309-2.24 8.965-3.047zM38.011 30.427l1.836 1.836-1.816 1.816-1.836-1.836 1.816-1.816zm60.59-16.349c1.562 0 2.721 1.074 3.476 3.223.521 1.497.782 3.196.782 5.098 0 3.723-1.283 6.913-3.848 9.57-.807.833-1.322 1.25-1.543 1.25-1.393 0-3.014-.144-4.863-.43-.638-.104-.957-.202-.957-.293 0-.104.338-.254 1.015-.45 2.031-.585 3.913-1.627 5.645-3.124a12.055 12.055 0 001.992-2.207c.755-1.055 1.133-1.94 1.133-2.656v-.82l-3.262.117c-2.305.078-3.457-.88-3.457-2.872 0-1.237.358-2.565 1.074-3.984.82-1.615 1.758-2.422 2.813-2.422zm-9.436 12.325l1.933 1.953-1.933 1.934-1.934-1.953 1.934-1.934zm-4.297 0l1.953 1.953-1.934 1.934-1.933-1.953 1.914-1.934zm-71.726 0l1.934 1.953-1.934 1.934-1.933-1.953 1.933-1.934zm-4.297 0l1.953 1.953-1.933 1.934-1.934-1.953 1.914-1.934zm26.94.117l1.836 1.836-1.836 1.817-1.856-1.836 1.856-1.817zm4.433 0l1.856 1.836-1.836 1.817-1.855-1.836 1.835-1.817zM27.168 8.066c.078.053.176.215.293.489.86 2.031 1.999 5 3.418 8.906.742 2.031 1.79 3.047 3.144 3.047h3.407c2.487 0 3.73-.449 3.73-1.347 0-.625-.566-1.66-1.699-3.105l1.016-2.461c.104-.248.188-.371.253-.371.066 0 .202.15.41.449 1.055 1.55 1.583 3.138 1.583 4.765 0 3.308-1.647 4.961-4.942 4.961h-4.168c-.937 0-1.732-.3-2.383-.899-.403-.365-.892-1.029-1.464-1.992-.6 1.054-1.296 1.803-2.09 2.246-.977.534-2.357.8-4.14.8-3.503 0-5.255-1.256-5.255-3.769 0-.846.26-1.719.782-2.617.169-.3.338-.45.507-.45.157 0 .235.13.235.391 0 .144-.02.355-.059.635-.039.28-.058.492-.058.635 0 1.497 1.269 2.246 3.808 2.246 3.58 0 5.371-.697 5.371-2.09 0-.755-1.035-3.47-3.105-8.144l1.113-1.934c.143-.247.24-.377.293-.39zM1.875 0c.078 0 .15.156.215.469.065.312.124.732.176 1.26.052.527.097 1.136.136 1.826.04.69.072 1.41.098 2.158a128.238 128.238 0 01.078 4.404v7.285c0 2.07.996 3.106 2.988 3.106H9.54c2.487 0 3.73-.449 3.73-1.347 0-.625-.566-1.66-1.699-3.105l1.016-2.461c.104-.248.188-.371.253-.371.066 0 .202.15.41.449 1.055 1.55 1.583 3.138 1.583 4.765 0 3.308-1.647 4.961-4.942 4.961H5.176c-.808 0-1.5-.134-2.08-.401a3.436 3.436 0 01-1.436-1.25c-.377-.566-.654-1.296-.83-2.187-.176-.892-.264-1.97-.264-3.233l.02-4.765C.586 9.297.39 6.055 0 1.836L1.543.196c.13-.13.24-.196.332-.196zm96.316 16.871c-.521 0-.974.195-1.358.586-.384.39-.576.846-.576 1.367 0 1.146.82 1.719 2.461 1.719.612 0 1.393-.072 2.344-.215 0-.794-.274-1.556-.82-2.285-.6-.781-1.283-1.172-2.051-1.172z" fill="#72777D"/></svg>
